X:1
T:To God, in whom I trust
T:Joseph Stephenson
T:p41, Church Harmony Sacred to Devotion, 4th ed. London: [c1763-1771]
T:This edition by Edmund Gooch released into the public domain, September 2013.
T:To God, in whom I trust
T:Ps. 25th.
C:Joseph Stephenson
Z:p41, Church Harmony
Z:Sacred to Devotion, 4th ed.
Z:London: [c1763-1771]
%%score [ 1 2 3 4 ]
L:1/8
M:4/4
K:Cmin
V:1 treble nm="SOPRANO" snm="S."
V:2 treble nm="ALTO" snm="A."
V:3 treble-8 transpose=-12 nm="TENOR" snm="T."
V:4 bass nm="BASS" snm="B."
V:1
 G4 c2 =B2 | (cd e2) Td4 | c8 | =B4 c2 d2 | c4 c4 | =B8 | c4 =B2 c2 | G4 c4 | B2 B2 B4 | %9
w: To me thy|truth _ _ im-|part,|And lead me|in thy|way;|For thou art|he that|brings me help,|
w: To God, in|whom _ _ I|trust,|I lift my|heart and|voice;|O let me|not be|put to shame,|
w: Those who on|thee _ _ re-|ly|Let no dis-|grace at-|tend;|Be that the|shame- ful|lot of such|
 d4 c2 =B2 | (cd e2) Td4 | c8 |] %12
w: On thee I|wait _ _ all|day.|
w: Nor let my|foes _ _ re-|joice.|
w: As wil- ful-|ly _ _ of-|fend.|
V:2
 E4 G2 F2 | G4 G4 | G8 | G4 G2 G2 | G4 G4 | G8 | G4 G2 G2 | G4 A4 | F2 F2 G4 | A4 G2 A2 | G4 G4 | %11
w: To me thy|truth im-|part,|And lead me|in thy|way;|For thou art|he that|brings me help,|On thee I|wait all|
w: To God, in|whom I|trust,|I lift my|heart and|voice;|O let me|not be|put to shame,|Nor let my|foes re-|
w: Those who on|thee re-|ly|Let no dis-|grace at-|tend;|Be that the|shame- ful|lot of such|As wil- ful-|ly of-|
 G8 |] %12
w: day.|
w: joice.|
w: fend.|
V:3
 c4 e2 d2 | c4 T=B4 | c8 | d4 e2 d2 | e4 c4 | d8 | e4 d2 c2 | =B4 (c3 d) | e2 d2 e4 | f4 e2 d2 | %10
w: To me thy|truth im-|part,|And lead me|in thy|way;|For thou art|he that _|brings me help,|On thee I|
w: To God, in|whom I|trust,|I lift my|heart and|voice;|O let me|not be _|put to shame,|Nor let my|
w: Those who on|thee re-|ly|Let no dis-|grace at-|tend;|Be that the|shame- ful _|lot of such|As wil- ful-|
 c4 T=B4 | c8 |] %12
w: wait all|day.|
w: foes re-|joice.|
w: ly of-|fend.|
V:4
 C,4 C,2 D,2 | E,4 G,4 | C,8 | G,4 C2 =B,2 | C4 C,4 | G,8 | %6
w: To me thy|truth im-|part,|And lead me|in thy|way;|
w: To God, in|whom I|trust,|I lift my|heart and|voice;|
w: Those who on|thee re-|ly|Let no dis-|grace at-|tend;|
"^Notes:The alto part is notated in the alto clef in the source.The opening words of the first verse of the text are given in the source, as ‘To God in whom &c.’. Four verses of this texthave been given here.Instances of B§ throughout this setting are indicated in the source with a # sign." C4 G,2 C,2 | %7
w: For thou art|
w: O let me|
w: Be that the|
 G,4 F,4 | B,2 B,,2 E,4 | D,4 E,2 F,2 | G,4 G,,4 | C,8 |] %12
w: he that|brings me help,|On thee I|wait all|day.|
w: not be|put to shame,|Nor let my|foes re-|joice.|
w: shame- ful|lot of such|As wil- ful-|ly of-|fend.|

